packages/icons/src/target.svg

<svg width="24" height="24" viewBox="0 0 24 24" fill="none" xmlns="http://www.w3.org/2000/svg">
<path fill-rule="evenodd" clip-rule="evenodd" d="M13 2L13.001 4.062C14.7632 4.28479 16.4013 5.08743 17.6572 6.34351C18.9131 7.5996 19.7155 9.23775 19.938 11H22V13L19.938 13.001C19.7153 14.7631 18.9128 16.401 17.6569 17.6569C16.401 18.9128 14.7631 19.7153 13.001 19.938L13 22H11V19.938C9.23775 19.7155 7.5996 18.9131 6.34351 17.6572C5.08743 16.4013 4.28479 14.7632 4.062 13.001L2 13V11H4.062C4.28459 9.23761 5.08713 7.59934 6.34324 6.34324C7.59934 5.08713 9.23761 4.28459 11 4.062V2H13ZM12 6C10.4087 6 8.88258 6.63214 7.75736 7.75736C6.63214 8.88258 6 10.4087 6 12C6 13.5913 6.63214 15.1174 7.75736 16.2426C8.88258 17.3679 10.4087 18 12 18C13.5913 18 15.1174 17.3679 16.2426 16.2426C17.3679 15.1174 18 13.5913 18 12C18 10.4087 17.3679 8.88258 16.2426 7.75736C15.1174 6.63214 13.5913 6 12 6ZM12 9C12.7956 9 13.5587 9.31607 14.1213 9.87868C14.6839 10.4413 15 11.2044 15 12C15 12.7956 14.6839 13.5587 14.1213 14.1213C13.5587 14.6839 12.7956 15 12 15C11.2044 15 10.4413 14.6839 9.87868 14.1213C9.31607 13.5587 9 12.7956 9 12C9 11.2044 9.31607 10.4413 9.87868 9.87868C10.4413 9.31607 11.2044 9 12 9ZM12 11C11.7348 11 11.4804 11.1054 11.2929 11.2929C11.1054 11.4804 11 11.7348 11 12C11 12.2652 11.1054 12.5196 11.2929 12.7071C11.4804 12.8946 11.7348 13 12 13C12.2652 13 12.5196 12.8946 12.7071 12.7071C12.8946 12.5196 13 12.2652 13 12C13 11.7348 12.8946 11.4804 12.7071 11.2929C12.5196 11.1054 12.2652 11 12 11Z" fill="black"/>
</svg>

<svg xmlns="http://www.w3.org/2000/svg" width="24" height="24" fill="none" viewBox="0 0 24 24">
  <path fill="#000" fill-rule="evenodd" d="m13 2 .001 2.062A8.004 8.004 0 0 1 19.938 11H22v2l-2.062.001a8.004 8.004 0 0 1-6.937 6.937L13 22h-2v-2.062a8.004 8.004 0 0 1-6.938-6.937L2 13v-2h2.062A8.004 8.004 0 0 1 11 4.062V2h2Zm-1 4a6 6 0 1 0 0 12 6 6 0 0 0 0-12Zm0 3a3 3 0 1 1 0 6 3 3 0 0 1 0-6Zm0 2a1 1 0 1 0 0 2 1 1 0 0 0 0-2Z" clip-rule="evenodd"/>
</svg>
